!!!!SEGMENT: pl-wtm--r-1461--032_stefani-jozef--wszechstronne-cwiczenia-glosowe-allegro-moderato.krn
!!!cenid: 18xx:2245
!!!COM: Stefani, Józef
!!!COM-rismID:
!!!CDT: 1800/04/16-1876/03/19
!!!CNT: Polish
!!!GTL: Wszechstronne ćwiczenia głosowe
!!!OTL: Allegro moderato
!!!PDT:
!!!AGN:
!!!SMS-siglum: PL-Wtm
!!!SMS-shelfmark: R 1461
!!!SMS-shelfwork: 032 G
!!!SMS-variant:
!!!SMS-altvar:
!!!NIFC-rismSourceID: 1001120710
!!!NIFC-islandoraID: pl-wtm:25869
!!!URL-pdf-islandora: https://repozytorium.nifc.pl/islandora/object/pl-wtm%3A25869/datastream/PDF/view
!!!URL-scan: https://polish.musicsources.pl/pl/lokalizacje/galeria/rekopisy/6276 @EN{Scan on Polish Music Herritage in Open Access Website} @PL{Skany w portalu Dziedzictwo Muzyki Polskiej w otwartym dostępie}
!!!ONB-nifc: UWAGA: skan 0029-0030, s. 54-56. Następne ćwiczenie: Allegro Moderato (metrum 3/4)
!!!OMD: Allegro moderato.
!!!AIN: 1 empty 1 tenor
!!!key:
**kern	**kern	**dynam	**kern	**dynam
*part2	*part2	*part2	*part1	*part1
*staff3	*staff2	*	*staff1	*
*Iempty	*Iforte	*	*Itenor	*
*	*I"Fortepian	*	*I"Soprano/Tenore	*
*	*I'pf	*	*I'S/T	*
*clefF4	*clefG2	*	*clefG2	*
*k[]	*k[]	*	*k[]	*
*C:	*C:	*	*C:	*
*M4/4	*M4/4	*	*M4/4	*
*met(c)	*met(c)	*	*met(c)	*
=1	=1	=1	=1	=1
*2\right	*2\right	*	*2\right	*
!!LO:TX:a:t=P:problem:all\right:global
!	!	!LO:DY:b:Bi:t=%sor.:rj	!	!
!	!	!LO:HP:a	!	!
1GG 1GGG	4r	f >	2r	.
.	(>8fL 8d/	.	.	.
.	8G</J	.	.	.
.	8eL 8c/	.	4r	.
.	8G</	.	.	.
.	8d 8B/	.	4g/	.
.	8G</J)	]	.	.
=2	=2	=2	=2	=2
4C 4CC\	8r	p	(>4.g/	.
.	(>8G</L	.	.	.
4r	8e 8c/	.	.	.
.	8G</J	.	8cc\)	.
2r	8eL 8c/	.	4ee\	.
.	8G</	.	.	.
.	8e 8c/	.	4ee\	.
.	8G</J)	.	.	.
=3	=3	=3	=3	=3
*rep	*rep	*	*	*
4C 4CC\	8r	.	(>2ee\	.
.	(>8G</L	.	.	.
4r	8e 8c/	.	.	.
.	8G</J	.	.	.
2r	8eL 8c/	.	4cc,>\)	.
.	8G</	.	.	.
.	8e 8c/	.	4g/	.
.	8G</J)	.	.	.
*Xrep	*Xrep	*	*	*
=4	=4	=4	=4	=4
*rep	*rep	*	*	*
!	!	!	!	!LO:HP:b
4C 4CC\	8r	.	(>4.ee\	<
.	(>8G</L	.	.	.
4r	8e 8c/	.	.	.
.	8G</J	.	16ff\LL	.
.	.	.	16gg\JJ	.
!	!	!	!	!LO:HP:b
2r	8eL 8c/	.	8ff\L	[ >
.	8G</	.	8ee\	.
.	8e 8c/	.	8dd\	]
!	!	!	!LO:TX:a:t=P:problem=w źródle łuk kończy się na kresce taktowej	!
.	8G</J)	.	8cc\J)	.
*Xrep	*Xrep	*	*	*
=5	=5	=5	=5	=5
!	!	!	!	!LO:HP:b
4GG 4GGG/	8r	.	(>4.cc#X\	>
.	(>8G</L	.	.	.
4r	8f 8B/	.	.	.
.	8G</J	.	8dd\	]
2r	8fL 8B/	.	4g,>/)	.
.	8G</	.	.	.
.	8f 8B/	.	4g/	.
.	8G</J)	.	.	.
!!LO:LB:g=original
=6	=6	=6	=6	=6
4GG 4GGG\	8r	.	(<4.g/	.
.	(>8G</L	.	.	.
4r	8f 8B/	.	.	.
.	8G</J	.	8b/)	.
2r	8fL 8B/	.	4dd\	.
.	8G</	.	.	.
.	8f 8B/	.	4dd\	.
.	8G</J)	.	.	.
=7	=7	=7	=7	=7
*rep	*rep	*	*	*
4GG 4GGG\	8r	.	(>2dd\	.
.	(>8G</L	.	.	.
4r	8f 8B/	.	.	.
.	8G</J	.	.	.
2r	8fL 8B/	.	4g,>/)	.
.	8G</	.	.	.
.	8f 8B/	.	4g/	.
.	8G</J)	.	.	.
*Xrep	*Xrep	*	*	*
=8	=8	=8	=8	=8
*rep	*rep	*	*	*
!	!	!	!	!LO:HP:b
4GG 4GGG\	8r	.	>(4.dd\	<
.	(>8G</L	.	.	.
4r	8f 8B/	.	.	.
.	8G</J	.	16ee\LL	.
.	.	.	16ff\JJ	.
!	!	!	!	!LO:HP:b
2r	8fL 8B/	.	8ee\L	[ >
.	8G</	.	8dd\	.
.	8f 8B/	.	8cc\	]
.	8G</J)	.	8dd\J)	.
*Xrep	*Xrep	*	*	*
=9	=9	=9	=9	=9
*	*	*	*	*^
!	!	!	!	!LO:HP:a	!LO:HP:b
[>2C [<2CC/	8r	.	(>4.dd#X\	>	>
.	8G</L	.	.	.	.
.	8d#X 8c/	.	.	.	.
.	8G</J	.	8ee\)	]	]
4C] 4CC/]	4e 4c/	.	4cc,>\	.	.
4r	4r	.	(>8.cc\L	.	.
.	.	.	16b\Jk	.	.
!!LO:LB:g=original
*	*	*	*	*v	*v
=10	=10	=10	=10	=10
!	!	!	!LO:TX:a:t=P:problem=w źródle brak zakończenia łuku	!
4C 4CC/	8r	.	8g#X/)	.
.	8fL 8c 8A/	.	8r	.
4r	8f 8c 8A/	.	2a^>/	.
.	8fJ 8c 8A/	.	.	.
2r	4f 4c 4A/	.	.	.
.	4r	.	(<8.cc/L	.
.	.	.	16a/Jk	.
=11	=11	=11	=11	=11
4C 4CC/	8r	.	8f#X/)	.
.	8eL 8c 8G</	.	8r	.
4r	8e 8c 8G</	.	2g^>,>/	.
.	8eJ 8c 8G</	.	.	.
2r	4e 4c 4G</	.	.	.
.	4r	.	8.cc\L	.
.	.	.	16ee\Jk	.
=12	=12	=12	=12	=12
!	!	!	!LO:TX:a:t=P:problem=diminuendolike accent	!
4GG 4GGG\	8r	.	(>4.ee^<\	.
.	8G</L	.	.	.
4r	8f 8B/	.	.	.
.	8G</J	.	8dd\	.
!	!	!	!LO:TX:a:t=P:problem=diminuendolike accent	!
4GG 4GGG\	8r	.	4.ff^<\	.
.	8G</L	.	.	.
4r	8f 8B/	.	.	.
.	8G</J	.	8b\)	.
=13	=13	=13	=13	=13
2C 2CC\	8r	.	(>16dd\LL	.
.	.	.	16cc\	.
.	8G</L	.	16b\	.
.	.	.	16cc\JJ	.
.	8e 8c/	.	16b\LL	.
.	.	.	16cc\	.
.	8G</J	.	16ee\	.
.	.	.	16cc\JJ	.
4C 4CC\	4e 4c/	.	4g,>/)	.
4r	4r	.	8.cc\L	.
.	.	.	16b\Jk	.
!!LO:LB:g=original
=14	=14	=14	=14	=14
!	!	!LO:DY:b:rj	!	!
2.C 2.CC/	8r	f	8g#X/	.
.	8fL 8c 8A/	.	8r	.
.	8f 8c 8A/	.	2a^>/	.
.	8fJ 8c 8A/	.	.	.
.	4f 4c 4A/	.	.	.
4r	4r	.	8.cc/L	.
.	.	.	16a/Jk	.
=15	=15	=15	=15	=15
2.C 2.CC/	8r	.	8f#X/	.
.	8eL 8c 8G</	.	8r	.
.	8e 8c 8G</	.	2g^>,>/	.
.	8eJ 8c 8G</	.	.	.
.	4e 4c 4G</	.	.	.
4r	4r	.	8.cc\L	.
.	.	.	16ee\Jk	.
=16	=16	=16	=16	=16
!	!	!	!	!LO:HP:b
8F 8FF\	8r	.	(>16ee\LL	<
.	.	.	16dd\	.
8r	8f 8d 8A</	.	16cc#X\	.
.	.	.	16dd\JJ	.
8D 8DD\	8r	.	16ee\LL	.
.	.	.	16ff\	.
8r	8f 8d 8A</	.	16ff#X\	.
.	.	.	16gg\JJ	[[
!	!	!	!	!LO:HP:b
8GG\	8r	.	16aa\LL	>
.	.	.	16gg\	.
8r	8e 8c 8G</	.	16ee\	.
.	.	.	16cc#\JJ	.
8GG\	8r	.	16a/LL	.
.	.	.	16g/JJ)	]
!	!	!	!	!LO:HP:b
8r;<	8f 8B 8G<;>/	.	16.ee;>\LL	>
.	.	.	32dd\JJk	]]
!!LO:PB:g=original
=17	=17	=17	=17	=17
4C 4CC/	4e 4c/	.	4cc\	.
4C 4CC/	4ccc 4ee 4cc\	sf	4r	.
4r	4r	.	4r	.
8.CL 8.CC/	8.ccL 8.a 8.e/	.	8.cc\L	.
16CJk 16CC/	16ccJk 16a 16e/	.	16cc\Jk	.
=18	=18	=18	=18	=18
4.D 4.DD/	4.b 4.g 4.d/	.	4.b\	.
8D 8DD/	8b 8g 8d/	.	8b\	.
4.C 4.CC/	4.a 4.f#X 4.d/	.	4.a\	<
8C 8CC/	8a 8f# 8d/	.	8a\	.
=19	=19	=19	=19	=19
4BB 4BBB/	4dd 4g 4d/	f	2dd,>\	[[
4r	4dd 4g 4d/	.	.	.
4C 4CC/	4r	.	(>8.dd#X\L	.
.	.	.	16ee\Jk	.
4r	4cc 4a 4e/	.	16ddn\LL	.
.	.	.	16cc\	.
.	.	.	16b\	.
.	.	.	16a\JJ	.
=20	=20	=20	=20	=20
4D 4DD/	4b 4g 4d/	.	8.g/L)	.
.	.	.	16d/Jk	.
4r	4r	.	8g/L	.
.	.	.	8a/J	.
!	!	!	!LO:TUP:a	!
8D 8DD/	8b 8g 8d/	.	(>12b\L	.
.	.	.	12ee\	.
8r	8r	.	.	.
.	.	.	12dd\J	.
!	!	!	!LO:TUP:a	!
4D 4DD/	4a 4d 4c/	.	12cc/L	.
.	.	.	12e/	.
.	.	.	12f#X/J)	.
!!LO:LB:g=original
=21	=21	=21	=21	=21
!	!	!	!	!LO:HP:b
4G 4GG\	4g 4d 4B/	.	2.g,>/	<
2.GG 2.GGG\	(>8fnL 8d/	.	.	.
.	8G</J	.	.	.
!	!	!	!	!LO:HP:b
.	8eL 8c/	.	.	[ >
.	8G</	.	.	.
.	8d 8B/	.	4g/	.
.	8G</J)	.	.	]
=22	=22	=22	=22	=22
4C 4CC\	8r	p	(>4.g/	.
.	(>8G</L	.	.	.
4r	8e 8c/	.	.	.
.	8G</J	.	8cc\)	.
2r	8eL 8c/	.	4ee\	.
.	8G</	.	.	.
.	8e 8c/	.	4ee\	.
.	8G</J)	.	.	.
=23	=23	=23	=23	=23
*rep	*rep	*	*	*
4C 4CC\	8r	.	(>2ee\	.
.	(>8G</L	.	.	.
4r	8e 8c/	.	.	.
.	8G</J	.	.	.
2r	8eL 8c/	.	4cc,>\)	.
.	8G</	.	.	.
.	8e 8c/	.	4g/	.
.	8G</J)	.	.	.
*Xrep	*Xrep	*	*	*
=24	=24	=24	=24	=24
*rep	*rep	*	*	*
!	!	!	!	!LO:HP:b
4C 4CC\	8r	.	(>4.ee\	<
.	(>8G</L	.	.	.
4r	8e 8c/	.	.	.
.	8G</J	.	16ff\LL	.
!	!	!	!	!LO:HP:b
.	.	.	16gg\JJ	[ >
2r	8eL 8c/	.	8ff\L	.
.	8G</	.	8ee\	.
.	8e 8c/	.	8dd\	.
.	8G</J)	.	8cc\J)	]]
*Xrep	*Xrep	*	*	*
=25	=25	=25	=25	=25
!	!	!	!	!LO:HP:b
4GG 4GGG\	8r	.	(>4.cc#X\	>
.	(>8G</L	.	.	.
4r	8f 8B/	.	.	.
.	8G</J	.	8dd\	]
2r	8fL 8B/	.	4g,>/)	.
.	8G</	.	.	.
.	8f 8B/	.	4g/	.
.	8G</J)	.	.	.
!!LO:LB:g=original
=26	=26	=26	=26	=26
4GG 4GGG\	8r	.	(>4.g/	.
.	(>8G</L	.	.	.
4r	8f 8B/	.	.	.
.	8G</J	.	8b/)	.
2r	8fL 8B/	.	4dd\	.
.	8G</	.	.	.
.	8f 8B/	.	4dd\	.
.	8G</J)	.	.	.
=27	=27	=27	=27	=27
*rep	*rep	*	*	*
4GG 4GGG\	8r	.	(>2dd\	.
.	(>8G</L	.	.	.
4r	8f 8B/	.	.	.
.	8G</J	.	.	.
2r	8fL 8B/	.	4g,>/)	.
.	8G</	.	.	.
.	8f 8B/	.	4g/	.
.	8G</J)	.	.	.
*Xrep	*Xrep	*	*	*
=28	=28	=28	=28	=28
*rep	*rep	*	*	*
!	!	!	!	!LO:HP:b
4GG 4GGG\	8r	.	(>4.dd\	<
.	(>8G</L	.	.	.
4r	8f 8B/	.	.	.
.	8G</J	.	16ee\LL	.
!	!	!	!	!LO:HP:b
.	.	.	16ff\JJ	[ >
2r	8fL 8B/	.	8ee\L	.
.	8G</	.	8dd\	.
.	8f 8B/	.	8cc\	.
.	8G</J)	.	8dd\J	]
*Xrep	*Xrep	*	*	*
=29	=29	=29	=29	=29
!	!	!	!	!LO:HP:b
2C 2CC\	8r	.	4.dd#X\	>
.	8G</L	.	.	.
.	8d#X 8c/	.	.	.
.	8G</J	.	8ee\)	]
4C 4CC\	4e 4c 4G</	.	4cc,>\	.
4r	4r	.	(>8.cc\L	.
.	.	.	16b\Jk)	.
!!LO:LB:g=original
=30	=30	=30	=30	=30
2.C 2.CC/	8r	.	8g#X/	.
.	8fL 8c 8A/	.	8r	.
.	8f 8c 8A/	.	2a^>/	.
.	8fJ 8c 8A/	.	.	.
.	4f 4c 4A/	.	.	.
4r	4r	.	(<8.cc/L	.
.	.	.	16a/Jk)	.
=31	=31	=31	=31	=31
2.C 2.CC/	8r	.	8f#X/	.
.	8eL 8c 8G</	.	8r	.
.	8e 8c 8G</	.	2g^>,>/	.
.	8eJ 8c 8G</	.	.	.
.	4e 4c 4G</	.	.	.
4r	4r	.	8.cc\L	.
.	.	.	16ee\Jk	.
=32	=32	=32	=32	=32
!	!	!	!	!LO:HP:b
8F 8FF\	8r	.	(>16ee\LL	<
.	.	.	16dd\	.
8rGG	8f 8d 8A</	.	16cc#X\	.
.	.	.	16dd\JJ	.
8D 8DD\	8r	.	16ee\LL	.
.	.	.	16ff\	.
8rGG	8f 8d 8A</	.	16ff#X\	.
.	.	.	16gg\JJ	.
!	!	!	!	!LO:HP:b
8GG\	8r	.	16aa\LL	[ >
.	.	.	16gg\	.
8rGG	8e 8c 8G</	.	16ee\	.
.	.	.	16ccn\JJ	.
8GG 8GGG\	8r	.	(<16a/LL)	.
.	.	.	16g/JJ	]
!	!LO:TX:b:Bi:t=V&colon;S&colon;	!	!	!
8rEE;>	8f 8B 8G<;>/	.	16.ee;>\LL	.
.	.	.	32dd\JJk)	.
!!LO:PB:g=original
=33	=33	=33	=33	=33
4C 4CC\	8r	.	4cc\	.
!	!	!LO:HP:a	!	!
.	8eL 8c 8G</	<	.	.
4rGG	8e 8c 8G</	.	8r	.
.	8eJ 8c 8G</	.	8ee\	.
4C 4CC\	8r	.	(>4.gg\	.
.	8eL 8c 8B-X 8G</	.	.	.
4rGG	8e 8c 8B- 8G</	.	.	.
.	8eJ 8c 8B- 8G</	[[	8b-X\)	.
=34	=34	=34	=34	=34
!	!	!LO:HP:a	!	!
4C 4CC\	8r	>	>(4.a\	.
.	8fL 8c 8A</	.	.	.
4rGG	8f 8c 8A</	.	.	.
.	8fJ 8c 8A</	.	8cc\	.
4C 4CC\	8r	.	4.ff\	.
.	8fL 8B 8G</	.	.	.
4rGG	8f 8B 8G</	]	.	.
.	8fJ 8B 8G</	.	8bn\	.
=35	=35	=35	=35	=35
4C 4CC\	8r	.	4cc\)	.
!	!	!LO:HP:a	!	!
.	8eL 8c 8G</	<	.	.
4rGG	8e 8c 8G</	.	8r	.
.	8eJ 8c 8G</	.	(>8ee\	.
4C 4CC\	8r	.	8aa\L	.
.	8eL 8c 8B-X 8G</	.	8gg\	.
4rGG	8e 8c 8B- 8G</	.	8ee\	.
.	8eJ 8c 8B- 8G</	[[	8b-X\J	.
=36	=36	=36	=36	=36
!	!	!LO:HP:a	!	!
4C 4CC\	8r	>	4.a/)	.
.	8fL 8c 8A</	.	.	.
4rGG	8f 8c 8A</	.	.	.
.	8fJ 8c 8A</	.	(>8cc\	.
4C 4CC\	8r	.	8aa\L	.
.	8fL 8B 8G</	]	8gg\	.
4rGG	8f 8B 8G</	.	8ff\	.
.	8fJ 8B 8G</	.	8dd\J	.
!!LO:LB:g=original
=37	=37	=37	=37	=37
4C 4CC\	8r	.	(>4.cc\)	.
.	8eL 8c 8G</	.	.	.
4rGG	8e 8c 8G</	.	.	.
.	8eJ 8c 8G</	.	16b\LL	.
.	.	.	16cc\JJ	.
4C 4CC\	8r	.	8ee\L	.
.	8eL 8c 8G</	.	8cc\	.
4rGG	8e 8c 8G</	.	8g\	.
.	8eJ 8c 8G</	.	8e\J)	.
=38	=38	=38	=38	=38
4C 4CC\	8r	.	(<4.g/	.
.	8eL 8c 8G</	.	.	.
4rGG	8e 8c 8G</	.	.	.
.	8eJ 8c 8G</	.	16f#X/LL	.
.	.	.	16g/JJ	.
4C 4CC\	4e 4c 4G</	.	8cc/L	.
.	.	.	8g/	.
4r	4r	.	8e/	.
.	.	.	8d/J)	.
=39	=39	=39	=39	=39
!	!	!LO:DY:b:rj	!	!
2C 2CC\	2e 2c 2G</	f	1c	<
2C 2CC\	2f 2c 2A-X</	.	.	[ >]
=40	=40	=40	=40	=40
1C 1CC	1e 1c 1G<	.	4c/	.
.	.	.	4r	.
.	.	.	2r	.
==	==	==	==	==
*-	*-	*-	*-	*-
!!!system-decoration: s1{(s2,s3)}
!!!RDF**kern: > = above
!!!RDF**kern: < = below
!!!RDF**kern: | = vertical stroke
!!!RDF**kern: N = linked
!!!RDF**kern: i = editorial accidental
!!!EED: Wojciech Jakubiak-Danek
!!!EEV: 2021-06-04
!!!ENC: Berenika Jozajtis
!!!END: 2021-05-24
